X: 021907
T: Brian the Brave HP
T: Poll Ha'penny
S: "Roche Collection of Traditional Irish Music" [II/11/212]
L: 1/8
M: 4/4
R: reel
K: G
G3B d2 Bd | edBe dBAB | GFGB dedB | AEGE D2 BA |
G3B d2 Bd | edBA GABd | eccB cdef | gedB AcBA :|
g2 bg agge | dBBA GABd | g2 gf gfeg | eaa^g a2 ga |
bggg ageg | dBBA GABd |  eccB cdef | gedB AcBA :|
